markup/public/images/card-01.svg

<svg width="47" height="38" viewBox="0 0 47 38" fill="none" xmlns="http://www.w3.org/2000/svg">
<path d="M7.45466 7.51825C7.45466 5.79661 7.45466 4.16167 7.45466 2.51434C7.45466 2.16754 7.44238 1.80834 7.45466 1.46154C7.46695 0.396349 7.84766 0 8.90384 0C12.797 0 16.6778 0 20.5709 0C28.6274 0.0123859 36.6961 0 44.7525 0C45.0841 0 45.4034 0 45.735 0.0123859C46.607 0.0495437 46.9877 0.445893 46.9877 1.32529C46.9877 6.34159 46.9877 11.3579 46.9877 16.3742C46.9877 21.9107 46.9877 27.4348 46.9754 32.9713C46.9632 35.9068 44.949 37.9876 42.0507 37.9876C32.0047 38 21.9587 38 11.9127 38C9.70212 38 7.49151 38 5.2809 38C2.23517 38 0 35.7086 0 32.6369C0.0122812 25.1682 0.0122812 17.6995 0.0122812 10.2308C0.0122812 9.7601 0 9.27705 0.0245623 8.80639C0.0491246 7.92699 0.442122 7.54303 1.33865 7.53064C3.09485 7.51825 4.86334 7.53064 6.61954 7.53064C6.86517 7.51825 7.12307 7.51825 7.45466 7.51825ZM9.02665 35.7334C9.25999 35.7334 9.39509 35.7334 9.53018 35.7334C20.3499 35.7334 31.1819 35.7334 42.0016 35.7334C43.6472 35.7334 44.7648 34.6063 44.7648 32.9218C44.7648 22.9511 44.7648 12.9928 44.7648 3.02216C44.7648 2.78683 44.7648 2.5515 44.7648 2.32855C33.0363 2.32855 21.4061 2.32855 9.7144 2.32855C9.7144 2.60104 9.7144 2.82399 9.7144 3.04694C9.7144 12.163 9.73896 21.2914 9.7144 30.4074C9.7144 32.1786 10.0091 34.0117 9.02665 35.7334ZM2.25973 9.83442C2.25973 10.0945 2.25973 10.3175 2.25973 10.5404C2.25973 12.2125 2.25973 13.8846 2.25973 15.5567C2.25973 21.3533 2.25973 27.1499 2.27201 32.9465C2.27201 34.4948 3.61066 35.7582 5.13352 35.7334C6.50901 35.7086 7.44238 34.6186 7.44238 33.0085C7.44238 25.5026 7.44238 17.9844 7.45466 10.4785C7.45466 10.2679 7.4301 10.045 7.41782 9.83442C5.6739 9.83442 4.00366 9.83442 2.25973 9.83442Z" fill="#67717D"/>
<path d="M13.0671 12.4479C13.0671 10.6271 13.0671 8.8188 13.0671 6.99807C13.0671 6.04436 13.4724 5.63562 14.4058 5.63562C17.3778 5.63562 20.3376 5.63562 23.3096 5.63562C24.2184 5.63562 24.6237 6.04436 24.6237 6.96091C24.6237 10.59 24.6237 14.2191 24.6237 17.8605C24.6237 18.7647 24.2184 19.1858 23.3096 19.1858C20.3253 19.1982 17.341 19.1982 14.3444 19.1858C13.4724 19.1858 13.0671 18.7771 13.0671 17.8977C13.0671 16.0893 13.0671 14.2686 13.0671 12.4479ZM15.3269 16.8696C17.7094 16.8696 20.0306 16.8696 22.364 16.8696C22.364 13.8846 22.364 10.9368 22.364 7.95179C20.006 7.95179 17.6726 7.95179 15.3269 7.95179C15.3269 10.9492 15.3269 13.897 15.3269 16.8696Z" fill="#67717D"/>
<path d="M13.104 30.4818C13.104 29.7015 13.104 29.0078 13.104 28.2028C13.3619 28.2028 13.5953 28.2028 13.8286 28.2028C22.7938 28.2028 31.7591 28.2028 40.7243 28.178C41.3138 28.178 41.4489 28.3762 41.4366 28.9211C41.4121 30.4694 41.4366 30.4694 39.8892 30.4694C31.2064 30.4694 22.5359 30.4694 13.8532 30.4694C13.6198 30.4818 13.3742 30.4818 13.104 30.4818Z" fill="#67717D"/>
<path d="M13.104 24.809C13.104 24.0411 13.104 23.3475 13.104 22.5795C13.7672 22.5795 14.3935 22.5795 15.0199 22.5795C23.5921 22.5795 32.1644 22.5919 40.7366 22.5671C41.277 22.5671 41.4735 22.7034 41.4243 23.2608C41.3752 23.7686 41.4121 24.2764 41.4121 24.809C31.931 24.809 22.5482 24.809 13.104 24.809Z" fill="#67717D"/>
<path d="M34.682 7.90224C32.631 7.90224 30.5923 7.88986 28.5414 7.91463C28.087 7.91463 27.9396 7.766 27.9396 7.30772C27.9273 5.63562 27.9151 5.63562 29.5607 5.63562C33.2819 5.63562 37.0031 5.64801 40.7243 5.63562C41.2647 5.63562 41.4243 5.79664 41.4121 6.32923C41.3998 7.90224 41.4243 7.90224 39.8769 7.90224C38.1698 7.91463 36.4259 7.90224 34.682 7.90224Z" fill="#67717D"/>
<path d="M34.6574 13.5626C32.631 13.5626 30.6046 13.5502 28.5782 13.575C28.0747 13.5874 27.9642 13.414 27.9519 12.9309C27.9396 11.296 27.9273 11.296 29.5484 11.296C33.2696 11.296 36.9908 11.3083 40.712 11.2836C41.2892 11.2836 41.4366 11.457 41.4366 12.0143C41.412 13.5502 41.4366 13.5502 39.926 13.5626C38.1698 13.5626 36.4136 13.5626 34.6574 13.5626Z" fill="#67717D"/>
<path d="M34.6697 19.1857C32.6433 19.1857 30.6169 19.1734 28.5905 19.1981C28.1116 19.1981 27.9519 19.0619 27.9519 18.5665C27.9519 16.9191 27.9396 16.9191 29.5853 16.9191C33.2942 16.9191 36.9908 16.9191 40.6997 16.9067C41.2524 16.9067 41.4489 17.0306 41.4366 17.6251C41.4121 19.1981 41.4366 19.1981 39.8892 19.1981C38.1453 19.1981 36.4136 19.1981 34.6697 19.1857C34.6697 19.1981 34.6697 19.1981 34.6697 19.1857Z" fill="#67717D"/>
</svg>

<svg width="47" height="38" viewBox="0 0 47 38" fill="none" xmlns="http://www.w3.org/2000/svg"><path d="M7.455 7.518V2.514c0-.346-.013-.706 0-1.052C7.467.396 7.848 0 8.904 0H20.57c8.056.012 16.125 0 24.181 0 .332 0 .651 0 .983.012.872.038 1.253.434 1.253 1.313v15.05c0 5.536 0 11.06-.013 16.596-.012 2.936-2.026 5.017-4.924 5.017C32.005 38 21.959 38 11.913 38H5.28C2.235 38 0 35.709 0 32.637c.012-7.469.012-14.938.012-22.406 0-.47-.012-.954.013-1.425.024-.879.417-1.263 1.314-1.275 1.756-.013 3.524 0 5.28 0 .246-.013.504-.013.836-.013zm1.572 28.215h32.975c1.645 0 2.763-1.127 2.763-2.811V2.329H9.715v.718c0 9.116.024 18.244 0 27.36 0 1.772.294 3.605-.688 5.326zM2.26 9.834v5.723c0 5.796 0 11.593.012 17.39 0 1.548 1.339 2.811 2.862 2.786 1.375-.024 2.308-1.114 2.308-2.724 0-7.506 0-15.025.013-22.53 0-.211-.025-.434-.037-.645H2.26z" fill="#67717D"/><path d="M13.067 12.448v-5.45c0-.954.405-1.362 1.339-1.362h8.904c.908 0 1.314.408 1.314 1.325v10.9c0 .904-.406 1.325-1.314 1.325-2.985.012-5.969.012-8.966 0-.872 0-1.277-.409-1.277-1.288v-5.45zm2.26 4.422h7.037V7.952h-7.037v8.918zm-2.223 13.612v-2.28h.725c8.965 0 17.93 0 26.895-.024.59 0 .725.198.713.743-.025 1.548 0 1.548-1.548 1.548H13.853c-.233.013-.479.013-.749.013zm0-5.673v-2.23h1.916c8.572 0 17.144.013 25.717-.012.54 0 .736.136.687.694-.049.508-.012 1.015-.012 1.548H13.104zM34.682 7.902c-2.051 0-4.09-.012-6.14.013-.455 0-.602-.149-.602-.607-.013-1.672-.025-1.672 1.62-1.672 3.722 0 7.443.012 11.164 0 .54 0 .7.16.688.693-.012 1.573.012 1.573-1.535 1.573-1.707.013-3.451 0-5.195 0zm-.025 5.661c-2.026 0-4.052-.013-6.079.012-.503.012-.614-.161-.626-.644-.012-1.635-.025-1.635 1.596-1.635 3.722 0 7.443.012 11.164-.012.577 0 .725.173.725.73-.025 1.536 0 1.536-1.511 1.549h-5.269zm.013 5.623c-2.027 0-4.053-.013-6.08.012-.478 0-.638-.136-.638-.631 0-1.648-.012-1.648 1.633-1.648 3.71 0 7.406 0 11.115-.012.552 0 .749.124.737.718-.025 1.573 0 1.573-1.548 1.573-1.744 0-3.475 0-5.22-.012 0 .012 0 .012 0 0z" fill="#67717D"/></svg>
